assets/images/abb_s.svg

<svg width="91" height="91" viewBox="0 0 91 91" fill="none" xmlns="http://www.w3.org/2000/svg">
<circle cx="45.5" cy="45.5" r="33.5" fill="#023869"/>
<circle cx="45.5" cy="45.5" r="39.5" stroke="#023869" stroke-opacity="0.12" stroke-width="12"/>
<path d="M46.4743 57.36C51.9103 57.36 55.7263 54.552 55.7263 49.548C55.7263 45.084 52.8463 43.248 47.7343 41.916C43.3783 40.8 42.2983 40.26 42.2983 38.604C42.2983 37.308 43.4143 36.336 45.5383 36.336C47.6623 36.336 49.8583 37.272 52.0903 38.82L54.9703 34.644C52.4143 32.592 49.2823 31.44 45.6103 31.44C40.4623 31.44 36.7903 34.464 36.7903 39.036C36.7903 44.112 40.0663 45.516 45.1423 46.812C49.3543 47.892 50.2183 48.612 50.2183 50.016C50.2183 51.564 48.8503 52.464 46.5823 52.464C43.7023 52.464 41.3263 51.276 39.0583 49.404L35.7823 53.328C38.8063 56.028 42.6583 57.36 46.4743 57.36Z" fill="white"/>
</svg>

<svg width="91" height="91" fill="none" xmlns="http://www.w3.org/2000/svg"><circle cx="45.5" cy="45.5" r="33.5" fill="#023869"/><circle cx="45.5" cy="45.5" r="39.5" stroke="#023869" stroke-opacity=".12" stroke-width="12"/><path d="M46.474 57.36c5.436 0 9.252-2.808 9.252-7.812 0-4.464-2.88-6.3-7.992-7.632-4.356-1.116-5.436-1.656-5.436-3.312 0-1.296 1.116-2.268 3.24-2.268s4.32.936 6.552 2.484l2.88-4.176c-2.556-2.052-5.688-3.204-9.36-3.204-5.148 0-8.82 3.024-8.82 7.596 0 5.076 3.276 6.48 8.352 7.776 4.212 1.08 5.076 1.8 5.076 3.204 0 1.548-1.368 2.448-3.636 2.448-2.88 0-5.256-1.188-7.524-3.06l-3.276 3.924c3.024 2.7 6.876 4.032 10.692 4.032z" fill="#fff"/></svg>
